src/topics/icons/akamai.svg

<svg height="209" preserveAspectRatio="xMidYMid" viewBox="0 0 512 209" width="512" xmlns="http://www.w3.org/2000/svg"><path d="m156.165577 152.930719h-20.859259l18.070588-36.587364h.223094zm.892375 16.620479 1.227015 14.50109h22.97865l-7.696732-84.440959h-34.244881l-43.1686271 84.440959h23.4248371l7.250544-14.50109zm56.331155-22.532462h3.457952l16.508932-22.197821h21.082353l-22.755555 28.332898 14.054902 30.675381h-22.532462l-9.146841-23.871024h-3.234859l-5.131154 23.871024h-19.520697l17.847494-84.1063182h19.40915zm65.924183 12.493247c6.35817 0 10.59695.446187 9.369934 5.354248-1.450109 6.35817-4.015686 7.250545-12.158605 7.250545-3.011765 0-8.47756 0-7.027451-6.35817 1.115468-5.354249 5.131154-6.246623 9.816122-6.246623zm5.354248 24.317211h19.186057l7.696732-36.810458c4.461873-20.413072-3.569499-22.755555-23.201743-22.755555-13.831808 0-27.217429-.223094-31.233116 18.293682h19.186057c1.227015-5.354249 4.461874-6.35817 9.146841-6.35817 8.47756 0 8.254466 3.569499 6.804357 8.923747l-1.896296 9.369935h-.892375c-.669281-6.804358-9.146841-6.581264-14.724183-6.581264-14.054902 0-22.309368 4.461874-25.321133 18.516776-3.234858 15.058823 4.015687 18.293682 17.401308 18.293682 6.804357 0 15.728104-1.450109 18.962963-9.369935h.669281zm58.450545-59.008279-1.673203 8.47756h.669281c3.792593-7.027451 11.489325-8.923747 18.070588-8.923747 8.47756 0 16.62048 1.450109 15.505011 11.489324h.892375c2.788671-8.47756 11.489325-11.489324 18.962963-11.489324 13.608715 0 19.40915 5.577342 16.397386 19.186056l-8.700654 40.379957h-19.186057l7.250545-34.24488c.892375-6.35817 1.896296-10.820044-5.354248-10.820044-7.250545 0-10.039216 4.908061-11.266231 11.266231l-7.027451 33.575599h-19.186057l7.473638-35.694989c.892375-5.354248 1.450109-9.146841-5.354248-9.146841-7.919826 0-10.373856 4.23878-11.712418 11.266231l-7.027451 33.575599h-19.186057l12.71634-59.119826h17.847495v.223094zm99.165141 34.691068c6.35817 0 10.59695.446187 9.369935 5.354248-1.227015 6.35817-4.015686 7.250545-12.158606 7.250545-2.788671 0-8.47756 0-7.027451-6.35817 1.115469-5.354249 4.908061-6.246623 9.816122-6.246623zm5.131155 24.317211h19.186057l7.696732-36.810458c4.461873-20.413072-3.569499-22.755555-23.201743-22.755555-13.831808 0-27.217429-.223094-31.233116 18.293682h19.186057c1.227015-5.354249 4.461874-6.35817 9.146841-6.35817 8.47756 0 8.254466 3.569499 6.804357 8.923747l-1.896296 9.369935h-.892375c-.669281-6.804358-9.146841-6.581264-14.724183-6.581264-14.054902 0-22.309368 4.461874-25.321133 18.516776-3.234858 15.058823 4.015687 18.293682 17.401308 18.293682 6.804357 0 15.728104-1.450109 18.962962-9.369935h.669282zm47.407407 0h-19.186056l12.381699-59.119826h19.186057zm16.843573-75.182571c0 5.911983-4.908061 10.820044-10.820043 10.820044-5.911983 0-10.820044-4.908061-10.820044-10.820044 0-6.135076 4.908061-10.8200435 10.820044-10.8200435 5.911982 0 10.820043 4.6849675 10.820043 10.8200435z" fill="#f79838"/><path d="m106.192593 204.242266c-42.9455342-13.162527-74.0671028-52.761656-74.0671028-99.388235 0-47.4074079 31.9023965-87.2296301 75.5172118-100.16906368 4.461873-1.22701525 3.234858-4.23877996-2.11939-4.23877996-57.8928109 0-105.07712464 46.62657954-105.07712464 104.07320264 0 57.446623 46.84967324 104.073203 105.07712464 104.073203 5.354248.33464 5.577342-2.677125.669281-4.350327zm-54.1002183-75.294118c-.2230937-2.788671-.4461873-5.577342-.4461873-8.47756 0-45.7342046 37.0335512-82.7677558 82.7677556-82.7677558 43.168628 0 56.331155 19.1860567 57.669717 18.0705883 1.673203-1.450109-15.728104-39.5991286-66.37037-39.5991286-45.734205 0-82.7677562 37.0335512-82.7677562 82.767756 0 10.5969501 2.1193899 20.6361661 5.577342 30.0061001 1.4501089 4.015686 3.7925926 4.015686 3.5694989 0zm34.4679739-59.5660129c21.3054464-9.3699347 48.5228754-9.5930283 75.0710244-.4461874 17.847494 6.3581699 28.109803 15.0588235 29.113725 14.724183 1.450109-.669281-10.373856-19.1860566-31.679303-27.2174292-25.76732-9.5930283-53.430937-4.6849673-73.6209148 11.266231-2.2309368 1.6732026-1.5616558 2.9002178 1.1154684 1.6732026z" fill="#0098cc"/></svg>

<?xml version="1.0" encoding="UTF-8" standalone="no"?>
<svg width="512px" height="209px" viewBox="0 0 512 209" version="1.1" xmlns="http://www.w3.org/2000/svg" xmlns:xlink="http://www.w3.org/1999/xlink" preserveAspectRatio="xMidYMid">
	<g>
		<path d="M156.165577,152.930719 L135.306318,152.930719 L153.376906,116.343355 L153.6,116.343355 L156.165577,152.930719 L156.165577,152.930719 Z M157.057952,169.551198 L158.284967,184.052288 L181.263617,184.052288 L173.566885,99.611329 L139.322004,99.611329 L96.1533769,184.052288 L119.578214,184.052288 L126.828758,169.551198 L157.057952,169.551198 L157.057952,169.551198 Z M213.389107,147.018736 L216.847059,147.018736 L233.355991,124.820915 L254.438344,124.820915 L231.682789,153.153813 L245.737691,183.829194 L223.205229,183.829194 L214.058388,159.95817 L210.823529,159.95817 L205.692375,183.829194 L186.171678,183.829194 L204.019172,99.7228758 L223.428322,99.7228758 L213.389107,147.018736 Z M279.31329,159.511983 C285.67146,159.511983 289.91024,159.95817 288.683224,164.866231 C287.233115,171.224401 284.667538,172.116776 276.524619,172.116776 C273.512854,172.116776 268.047059,172.116776 269.497168,165.758606 C270.612636,160.404357 274.628322,159.511983 279.31329,159.511983 L279.31329,159.511983 Z M284.667538,183.829194 L303.853595,183.829194 L311.550327,147.018736 C316.0122,126.605664 307.980828,124.263181 288.348584,124.263181 C274.516776,124.263181 261.131155,124.040087 257.115468,142.556863 L276.301525,142.556863 C277.52854,137.202614 280.763399,136.198693 285.448366,136.198693 C293.925926,136.198693 293.702832,139.768192 292.252723,145.12244 L290.356427,154.492375 L289.464052,154.492375 C288.794771,147.688017 280.317211,147.911111 274.739869,147.911111 C260.684967,147.911111 252.430501,152.372985 249.418736,166.427887 C246.183878,181.48671 253.434423,184.721569 266.820044,184.721569 C273.624401,184.721569 282.548148,183.27146 285.783007,175.351634 L286.452288,175.351634 L284.667538,183.829194 L284.667538,183.829194 Z M343.118083,124.820915 L341.44488,133.298475 L342.114161,133.298475 C345.906754,126.271024 353.603486,124.374728 360.184749,124.374728 C368.662309,124.374728 376.805229,125.824837 375.68976,135.864052 L376.582135,135.864052 C379.370806,127.386492 388.07146,124.374728 395.545098,124.374728 C409.153813,124.374728 414.954248,129.95207 411.942484,143.560784 L403.24183,183.940741 L384.055773,183.940741 L391.306318,149.695861 C392.198693,143.337691 393.202614,138.875817 385.95207,138.875817 C378.701525,138.875817 375.912854,143.783878 374.685839,150.142048 L367.658388,183.717647 L348.472331,183.717647 L355.945969,148.022658 C356.838344,142.66841 357.396078,138.875817 350.591721,138.875817 C342.671895,138.875817 340.217865,143.114597 338.879303,150.142048 L331.851852,183.717647 L312.665795,183.717647 L325.382135,124.597821 L343.22963,124.597821 L343.22963,124.820915 L343.118083,124.820915 Z M442.283224,159.511983 C448.641394,159.511983 452.880174,159.95817 451.653159,164.866231 C450.426144,171.224401 447.637473,172.116776 439.494553,172.116776 C436.705882,172.116776 431.016993,172.116776 432.467102,165.758606 C433.582571,160.404357 437.375163,159.511983 442.283224,159.511983 L442.283224,159.511983 Z M447.414379,183.829194 L466.600436,183.829194 L474.297168,147.018736 C478.759041,126.605664 470.727669,124.263181 451.095425,124.263181 C437.263617,124.263181 423.877996,124.040087 419.862309,142.556863 L439.048366,142.556863 C440.275381,137.202614 443.51024,136.198693 448.195207,136.198693 C456.672767,136.198693 456.449673,139.768192 454.999564,145.12244 L453.103268,154.492375 L452.210893,154.492375 C451.541612,147.688017 443.064052,147.911111 437.48671,147.911111 C423.431808,147.911111 415.177342,152.372985 412.165577,166.427887 C408.930719,181.48671 416.181264,184.721569 429.566885,184.721569 C436.371242,184.721569 445.294989,183.27146 448.529847,175.351634 L449.199129,175.351634 L447.414379,183.829194 L447.414379,183.829194 Z M494.821786,183.829194 L475.63573,183.829194 L488.017429,124.709368 L507.203486,124.709368 L494.821786,183.829194 L494.821786,183.829194 Z M511.665359,108.646623 C511.665359,114.558606 506.757298,119.466667 500.845316,119.466667 C494.933333,119.466667 490.025272,114.558606 490.025272,108.646623 C490.025272,102.511547 494.933333,97.8265795 500.845316,97.8265795 C506.757298,97.8265795 511.665359,102.511547 511.665359,108.646623 L511.665359,108.646623 Z" fill="#F79838"></path>
		<path d="M106.192593,204.242266 C63.2470588,191.079739 32.1254902,151.48061 32.1254902,104.854031 C32.1254902,57.4466231 64.0278867,17.6244009 107.642702,4.68496732 C112.104575,3.45795207 110.87756,0.446187364 105.523312,0.446187364 C47.6305011,0.446187364 0.446187364,47.0727669 0.446187364,104.51939 C0.446187364,161.966013 47.2958606,208.592593 105.523312,208.592593 C110.87756,208.927233 111.100654,205.915468 106.192593,204.242266 L106.192593,204.242266 Z M52.0923747,128.948148 C51.869281,126.159477 51.6461874,123.370806 51.6461874,120.470588 C51.6461874,74.7363834 88.6797386,37.7028322 134.413943,37.7028322 C177.582571,37.7028322 190.745098,56.8888889 192.08366,55.7734205 C193.756863,54.3233115 176.355556,16.1742919 125.71329,16.1742919 C79.979085,16.1742919 42.9455338,53.2078431 42.9455338,98.9420479 C42.9455338,109.538998 45.0649237,119.578214 48.5228758,128.948148 C49.9729847,132.963834 52.3154684,132.963834 52.0923747,128.948148 Z M86.5603486,69.3821351 C107.865795,60.0122004 135.083224,59.7891068 161.631373,68.9359477 C179.478867,75.2941176 189.741176,83.9947712 190.745098,83.6601307 C192.195207,82.9908497 180.371242,64.4740741 159.065795,56.4427015 C133.298475,46.8496732 105.634858,51.7577342 85.4448802,67.7089325 C83.2139434,69.3821351 83.8832244,70.6091503 86.5603486,69.3821351 L86.5603486,69.3821351 Z" fill="#0098CC"></path>
	</g>
</svg>
